X: 34783
T: Road To Skye, The
R: jig
M: 6/8
K: Amajor
|:AGF ECE|Ace f2e|acc cBc|dFF F2E|
AGF ECE|Ace f2e|aec BAB|BAG A3:|
|:Ace Ace|Ace dcB|Ace fga|fee efg|
aba gag|faf ecA|dcd Bed|BAG A3:|

